symbols/web/calculate/materialsymbolsrounded/calculate_wght700gradN25_48px.svg

<svg xmlns="http://www.w3.org/2000/svg" height="48" width="48"><path d="M13.65 17.75h7.25q.45 0 .825-.35.375-.35.375-.85t-.375-.85q-.375-.35-.825-.35h-7.25q-.55 0-.875.35-.325.35-.325.85t.325.85q.325.35.875.35ZM27.5 34.5H35q.45 0 .825-.35.375-.35.375-.85 0-.45-.375-.8-.375-.35-.825-.35h-7.5q-.55 0-.875.35-.325.35-.325.85 0 .45.325.8.325.35.875.35Zm0-5.4H35q.45 0 .825-.325.375-.325.375-.875 0-.45-.375-.8-.375-.35-.825-.35h-7.5q-.55 0-.875.375-.325.375-.325.825 0 .5.325.825.325.325.875.325Zm-10.2 7.1q.45 0 .8-.325.35-.325.35-.875v-3.2h3.2q.45 0 .825-.325.375-.325.375-.875 0-.45-.375-.8-.375-.35-.825-.35h-3.2v-3.2q0-.45-.375-.825-.375-.375-.825-.375-.5 0-.825.375-.325.375-.325.825v3.2h-3.2q-.55 0-.875.375-.325.375-.325.825 0 .5.325.825.325.325.875.325h3.2V35q0 .55.325.875.325.325.875.325Zm9.9-15.55q.3.35.825.35.525 0 .925-.35l2.2-2.2 2.25 2.25q.25.35.75.325.5-.025.9-.375.35-.35.35-.85t-.35-.9l-2.2-2.15 2.25-2.25q.3-.3.275-.8-.025-.5-.325-.85-.4-.35-.925-.35t-.775.3l-2.2 2.2-2.25-2.2q-.4-.35-.9-.325-.5.025-.8.325-.35.4-.35.925t.35.825l2.2 2.2L27.2 19q-.4.35-.375.85.025.5.375.8ZM9.55 43q-1.9 0-3.225-1.325Q5 40.35 5 38.45V9.55q0-1.9 1.325-3.275T9.55 4.9h28.9q1.9 0 3.275 1.375T43.1 9.55v28.9q0 1.9-1.375 3.225Q40.35 43 38.45 43Zm0-4.55h28.9V9.55H9.55v28.9Zm0 0V9.55v28.9Z"/></svg>

<svg xmlns="http://www.w3.org/2000/svg" height="48" width="48"><path d="M13.65 17.75H20.9Q21.35 17.75 21.725 17.4Q22.1 17.05 22.1 16.55Q22.1 16.05 21.725 15.7Q21.35 15.35 20.9 15.35H13.65Q13.1 15.35 12.775 15.7Q12.45 16.05 12.45 16.55Q12.45 17.05 12.775 17.4Q13.1 17.75 13.65 17.75ZM27.5 34.5H35Q35.45 34.5 35.825 34.15Q36.2 33.8 36.2 33.3Q36.2 32.85 35.825 32.5Q35.45 32.15 35 32.15H27.5Q26.95 32.15 26.625 32.5Q26.3 32.85 26.3 33.35Q26.3 33.8 26.625 34.15Q26.95 34.5 27.5 34.5ZM27.5 29.1H35Q35.45 29.1 35.825 28.775Q36.2 28.45 36.2 27.9Q36.2 27.45 35.825 27.1Q35.45 26.75 35 26.75H27.5Q26.95 26.75 26.625 27.125Q26.3 27.5 26.3 27.95Q26.3 28.45 26.625 28.775Q26.95 29.1 27.5 29.1ZM17.3 36.2Q17.75 36.2 18.1 35.875Q18.45 35.55 18.45 35V31.8H21.65Q22.1 31.8 22.475 31.475Q22.85 31.15 22.85 30.6Q22.85 30.15 22.475 29.8Q22.1 29.45 21.65 29.45H18.45V26.25Q18.45 25.8 18.075 25.425Q17.7 25.05 17.25 25.05Q16.75 25.05 16.425 25.425Q16.1 25.8 16.1 26.25V29.45H12.9Q12.35 29.45 12.025 29.825Q11.7 30.2 11.7 30.65Q11.7 31.15 12.025 31.475Q12.35 31.8 12.9 31.8H16.1V35Q16.1 35.55 16.425 35.875Q16.75 36.2 17.3 36.2ZM27.2 20.65Q27.5 21 28.025 21Q28.55 21 28.95 20.65L31.15 18.45L33.4 20.7Q33.65 21.05 34.15 21.025Q34.65 21 35.05 20.65Q35.4 20.3 35.4 19.8Q35.4 19.3 35.05 18.9L32.85 16.75L35.1 14.5Q35.4 14.2 35.375 13.7Q35.35 13.2 35.05 12.85Q34.65 12.5 34.125 12.5Q33.6 12.5 33.35 12.8L31.15 15L28.9 12.8Q28.5 12.45 28 12.475Q27.5 12.5 27.2 12.8Q26.85 13.2 26.85 13.725Q26.85 14.25 27.2 14.55L29.4 16.75L27.2 19Q26.8 19.35 26.825 19.85Q26.85 20.35 27.2 20.65ZM9.55 43Q7.65 43 6.325 41.675Q5 40.35 5 38.45V9.55Q5 7.65 6.325 6.275Q7.65 4.9 9.55 4.9H38.45Q40.35 4.9 41.725 6.275Q43.1 7.65 43.1 9.55V38.45Q43.1 40.35 41.725 41.675Q40.35 43 38.45 43ZM9.55 38.45H38.45Q38.45 38.45 38.45 38.45Q38.45 38.45 38.45 38.45V9.55Q38.45 9.55 38.45 9.55Q38.45 9.55 38.45 9.55H9.55Q9.55 9.55 9.55 9.55Q9.55 9.55 9.55 9.55V38.45Q9.55 38.45 9.55 38.45Q9.55 38.45 9.55 38.45ZM9.55 38.45Q9.55 38.45 9.55 38.45Q9.55 38.45 9.55 38.45V9.55Q9.55 9.55 9.55 9.55Q9.55 9.55 9.55 9.55Q9.55 9.55 9.55 9.55Q9.55 9.55 9.55 9.55V38.45Q9.55 38.45 9.55 38.45Q9.55 38.45 9.55 38.45Z"/></svg>
